X: 25821
T: Master Crowley's
R: reel
M: 4/4
K: Ddorian
C|A,D (3DDD A,DFD|EC (3CCC G,CEC|A,D (3DDD A,DFD|(3EFG cG EDDC|
A,D (3DDD A,DFD|EC (3CCC G,CEC|A,D (3DDD A,DFD|(3EFG cG EDDC|
A,3 C A,CFE|EDCD _B,3 G,|A,D DDD A,DFD|EGcG EDDC|
A,D (3DDD A,DFD|EC (3CCC G,CEC|A,D (3DDD A,DFD|(3EFG cG EDDE||
Dafa eadf|e c3 a c3|Aafa eadB|cAGE ED^CE|
Dafa eadf|e c3 a c3|DEFA G E3|GECD ED^CE|
Dafa eadf|ecgc acgc|Aafa eadB|cAGE ED^CE|
Dafa eadf|e c3 a c3|DEFA G E3|GECD EDDG,||

